X:1
T:The Sailor and His Bride
M:3/4
L:1/8
K:G
 DDE| G3D/2-E/2 DE| D3 DG A| B3 D/2D/2 EG| A3 AA d| d3 B| A3.99999962500005/5.99999925000009 G3.99999962500005/5.99999925000009 A3.99999962500005/5.99999925000009|\
 B3 BA G| G3 E/2D/2 DE| D3||
